X:1
T:[ID 7-74]
T:[ID 7-74]
T:Bezeichnung standardisiert: Schwabisch Schwabisch
T:Urheber unbekannt Datum in der hier transkribierten schriftlichen Quelle: 1776 - 1791
C:Urheber unbekannt
C:Datum in der hier transkribierten schriftlichen Quelle: 1776 - 1791
L:1/8
M:3/8
K:A
V:1 treble 
V:1
 a2 e/f/ | edc | Bcd | c/B/c/d/c | a2 e/f/ | edc | Bcd | c3 :: aga | f2 g | aga | e2 f/g/ | agf | %13
 edc | BAG | A3 :| %16

